;FLAVOR:UltiGCode
;TIME:9844
;MATERIAL:10916
;MATERIAL2:0
;NOZZLE_DIAMETER:0.4
;MINX:69.36
;MINY:89.888
;MINZ:0.27
;MAXX:153.64
;MAXY:133.091
;MAXZ:27.47
;TARGET_MACHINE.NAME:Ultimaker 2+
;Generated with Cura_SteamEngine 5.6.0
M82 ;absolute extrusion mode
G0 F3000 Y50 ;avoid prime blob
G92 E0
G92 E0
G10
;LAYER_COUNT:273
;LAYER:0
M107
G0 F7200 X73.017 Y91.164 Z0.27
;TYPE:SKIRT
G11
G1 F1800 X76.042 Y90.161 E0.34419
G1 X79.256 Y90.155 E0.6913
G1 X81.942 Y91.016 E0.99593
G1 X82.855 Y91.88 E1.13169
G1 X84.814 Y91.24 E1.35426
G1 X89.366 Y91.24 E1.84588
G1 X90.956 Y91.781 E2.02727
G1 X91.847 Y91.069 E2.15045
G1 X94.072 Y90.045 E2.41497
G1 X96.187 Y89.962 E2.64357
G1 X97.497 Y90.161 E2.78667
G1 X121.705 Y90.107 E5.40114
G1 X124.219 Y90.644 E5.67878
G1 X125.929 Y91.886 E5.90703
G1 X127.906 Y91.24 E6.13166
G1 X132.695 Y91.24 E6.64887
G1 X134.211 Y91.755 E6.82179
G1 X135.319 Y90.885 E6.97393
G1 X137.553 Y89.945 E7.23569
G1 X139.694 Y89.888 E7.467
G1 X141.148 Y90.16 E7.62676
G1 X147.21 Y90.161 E8.28145
G1 X149.828 Y91.051 E8.58009
G1 X150.144 Y91.251 E8.62048
G1 X152.637 Y93.818 E9.00694
G1 X153.64 Y96.906 E9.35759
G1 X153.604 Y105.638 E10.30066
G1 X153.57 Y106.32 E10.37441
G1 X153.534 Y116.89 E11.51597
G1 X153.64 Y117.431 E11.57551
G1 X153.64 Y126.028 E12.50399
G1 X153.18 Y128.11 E12.73427
G1 X152.063 Y129.812 E12.95413
G1 X149.974 Y131.838 E13.26842
G1 X146.915 Y132.84 E13.61607
G1 X138.238 Y132.864 E14.55319
G1 X135.662 Y132.224 E14.83985
G1 X134.355 Y131.123 E15.02442
G1 X132.39 Y131.76 E15.24751
G1 X127.993 Y131.76 E15.72238
G1 X126.187 Y131.368 E15.92197
G1 X125.861 Y131.207 E15.96124
G1 X124.524 Y132.28 E16.14639
G1 X121.729 Y132.915 E16.45594
G1 X119.591 Y132.841 E16.68698
G1 X97.566 Y132.857 E19.06568
G1 X96.483 Y133.091 E19.18535
G1 X93.85 Y132.982 E19.46995
G1 X91.207 Y131.545 E19.79486
G1 X90.838 Y131.186 E19.85046
G1 X89.064 Y131.76 E20.05183
G1 X84.906 Y131.76 E20.5009
G1 X83.104 Y131.368 E20.70006
G1 X82.726 Y131.176 E20.74585
G1 X81.421 Y132.218 E20.92621
G1 X78.805 Y132.839 E21.21659
G1 X76.173 Y132.84 E21.50084
G1 X74.091 Y132.38 E21.73112
G1 X72.365 Y131.247 E21.95411
G1 X70.364 Y129.184 E22.2645
G1 X69.36 Y126.128 E22.6119
G1 X69.36 Y96.97 E25.76097
G1 X69.782 Y95.052 E25.97307
G1 X70.868 Y93.252 E26.20011
G1 X73.017 Y91.164 E26.52371
G0 F7200 X73.23 Y91.515
G1 F1800 X76.108 Y90.561 E26.85117
G1 X79.194 Y90.555 E27.18445
G1 X81.732 Y91.369 E27.47231
G1 X82.752 Y92.334 E27.62396
G1 X84.877 Y91.64 E27.86539
G1 X89.299 Y91.64 E28.34296
G1 X91.034 Y92.231 E28.54092
G1 X92.059 Y91.411 E28.68268
G1 X94.165 Y90.442 E28.93305
G1 X96.169 Y90.363 E29.14965
G1 X97.47 Y90.561 E29.29178
G1 X121.664 Y90.507 E31.90473
G1 X124.052 Y91.017 E32.16846
G1 X125.859 Y92.329 E32.40963
G1 X127.969 Y91.64 E32.64935
G1 X132.628 Y91.64 E33.15252
G1 X134.287 Y92.204 E33.34176
G1 X135.524 Y91.233 E33.5116
G1 X137.639 Y90.343 E33.75942
G1 X139.663 Y90.289 E33.97809
G1 X141.005 Y90.54 E34.12554
G1 X141.526 Y90.56 E34.18185
G1 X147.143 Y90.561 E34.78849
G1 X149.699 Y91.43 E35.08005
G1 X149.857 Y91.53 E35.10025
G1 X152.286 Y94.031 E35.47678
G1 X153.24 Y96.968 E35.81029
G1 X153.204 Y105.618 E36.7445
G1 X153.17 Y106.3 E36.81824
G1 X153.134 Y116.931 E37.9664
G1 X153.24 Y117.472 E38.02594
G1 X153.24 Y125.983 E38.94513
G1 X152.805 Y127.953 E39.16301
G1 X151.752 Y129.557 E39.37024
G1 X149.762 Y131.487 E39.66963
G1 X146.852 Y132.44 E40.00034
G1 X138.285 Y132.464 E40.92558
G1 X135.85 Y131.859 E41.19655
G1 X134.444 Y130.674 E41.39514
G1 X132.329 Y131.36 E41.63527
G1 X128.037 Y131.36 E42.09881
G1 X126.272 Y130.977 E42.29387
G1 X125.82 Y130.726 E42.3497
G1 X124.345 Y131.911 E42.55404
G1 X121.692 Y132.513 E42.84785
G1 X119.605 Y132.441 E43.07338
G1 X97.524 Y132.457 E45.45813
G1 X96.45 Y132.689 E45.5768
G1 X93.958 Y132.586 E45.84616
G1 X91.398 Y131.194 E46.16087
G1 X90.953 Y130.728 E46.23046
G1 X89 Y131.36 E46.45216
G1 X84.95 Y131.36 E46.88956
G1 X83.189 Y130.977 E47.08419
G1 X82.687 Y130.695 E47.14638
G1 X81.24 Y131.85 E47.34633
G1 X78.759 Y132.439 E47.62173
G1 X76.218 Y132.44 E47.89615
G1 X74.248 Y132.005 E48.11404
G1 X72.62 Y130.936 E48.32438
G1 X70.716 Y128.973 E48.61973
G1 X69.76 Y126.064 E48.95043
G1 X69.76 Y97.015 E52.08772
G1 X70.159 Y95.201 E52.28832
G1 X71.183 Y93.504 E52.50238
G1 X73.23 Y91.515 E52.81063
G0 F7200 X73.443 Y91.866
G1 F1800 X76.174 Y90.961 E53.12135
G1 X79.132 Y90.955 E53.44081
G1 X81.522 Y91.722 E53.7119
G1 X82.649 Y92.788 E53.87944
G1 X84.94 Y92.04 E54.13972
G1 X89.232 Y92.04 E54.60325
G1 X91.112 Y92.68 E54.81774
G1 X92.271 Y91.753 E54.97802
G1 X94.258 Y90.839 E55.21423
G1 X96.151 Y90.764 E55.41884
G1 X97.362 Y90.948 E55.55113
G1 X97.868 Y90.96 E55.60579
G1 X121.623 Y90.907 E58.17134
G1 X123.885 Y91.39 E58.42114
G1 X125.789 Y92.772 E58.67523
G1 X128.032 Y92.04 E58.93005
G1 X132.561 Y92.04 E59.41918
G1 X134.364 Y92.653 E59.62485
G1 X135.729 Y91.581 E59.8123
G1 X137.725 Y90.741 E60.04618
G1 X139.632 Y90.69 E60.25221
G1 X140.963 Y90.939 E60.39845
G1 X141.511 Y90.96 E60.45768
G1 X147.076 Y90.961 E61.0587
G1 X149.57 Y91.809 E61.34319
G1 X151.935 Y94.244 E61.7098
G1 X152.84 Y97.03 E62.02616
G1 X152.804 Y105.598 E62.95151
G1 X152.77 Y106.28 E63.02526
G1 X152.734 Y116.971 E64.17989
G1 X152.84 Y117.513 E64.23954
G1 X152.84 Y125.938 E65.14944
G1 X152.43 Y127.796 E65.35493
G1 X151.441 Y129.302 E65.54952
G1 X149.551 Y131.135 E65.83387
G1 X146.788 Y132.04 E66.14787
G1 X138.332 Y132.064 E67.06112
G1 X136.038 Y131.494 E67.31641
G1 X134.532 Y130.225 E67.5291
G1 X132.265 Y130.96 E67.78648
G1 X128.081 Y130.96 E68.23835
G1 X126.357 Y130.586 E68.42888
G1 X125.789 Y130.237 E68.50087
G1 X124.165 Y131.542 E68.72588
G1 X121.656 Y132.111 E69.00373
G1 X119.619 Y132.041 E69.22386
G1 X97.48 Y132.057 E71.61487
G1 X96.416 Y132.287 E71.73243
G1 X94.066 Y132.19 E71.98645
G1 X91.644 Y130.873 E72.2842
G1 X91.068 Y130.27 E72.37426
G1 X88.936 Y130.96 E72.61627
G1 X84.994 Y130.96 E73.04201
G1 X83.274 Y130.586 E73.23211
G1 X82.655 Y130.208 E73.31044
G1 X81.059 Y131.482 E73.53099
G1 X78.713 Y132.039 E73.7914
G1 X76.263 Y132.04 E74.056
G1 X74.405 Y131.63 E74.26149
G1 X72.878 Y130.627 E74.4588
G1 X71.067 Y128.76 E74.73972
G1 X70.16 Y126 E75.05348
G1 X70.16 Y97.06 E78.179
G1 X70.536 Y95.352 E78.36788
G1 X71.5 Y93.754 E78.56943
G1 X73.443 Y91.866 E78.86203
G0 F7200 X73.656 Y92.217
G1 F1800 X76.24 Y91.361 E79.15602
G1 X79.07 Y91.355 E79.46166
G1 X81.312 Y92.075 E79.71597
G1 X82.546 Y93.242 E79.8994
G1 X85.003 Y92.44 E80.17854
G1 X89.165 Y92.44 E80.62803
G1 X91.19 Y93.129 E80.85904
G1 X92.483 Y92.095 E81.03785
G1 X94.351 Y91.236 E81.2599
G1 X96.133 Y91.165 E81.45251
G1 X97.332 Y91.347 E81.58349
G1 X97.859 Y91.36 E81.64042
G1 X121.582 Y91.307 E84.20251
G1 X123.718 Y91.763 E84.4384
G1 X125.718 Y93.216 E84.70538
G1 X128.095 Y92.44 E84.97543
G1 X132.494 Y92.44 E85.45052
G1 X134.441 Y93.102 E85.67262
G1 X135.934 Y91.929 E85.87768
G1 X137.811 Y91.139 E86.09762
G1 X139.601 Y91.091 E86.29101
G1 X140.921 Y91.338 E86.43604
G1 X141.496 Y91.36 E86.49819
G1 X147.009 Y91.361 E87.09359
G1 X149.35 Y92.157 E87.36063
G1 X151.584 Y94.457 E87.70692
G1 X152.44 Y97.092 E88.00614
G1 X152.406 Y105.557 E88.92037
G1 X152.385 Y105.761 E88.94252
G1 X152.37 Y106.268 E88.9973
G1 X152.334 Y117.011 E90.15755
G1 X152.44 Y117.554 E90.2173
G1 X152.44 Y125.893 E91.11791
G1 X152.055 Y127.639 E91.31101
G1 X151.13 Y129.047 E91.49295
G1 X149.339 Y130.784 E91.76241
G1 X146.725 Y131.64 E92.05947
G1 X138.38 Y131.664 E92.96074
G1 X136.225 Y131.128 E93.20057
G1 X134.62 Y129.776 E93.42721
G1 X132.201 Y130.56 E93.70184
G1 X128.125 Y130.56 E94.14205
G1 X126.508 Y130.209 E94.32075
G1 X125.757 Y129.749 E94.41587
G1 X123.985 Y131.173 E94.66138
G1 X121.62 Y131.709 E94.92328
G1 X119.633 Y131.641 E95.138
G1 X97.438 Y131.657 E97.53506
G1 X96.383 Y131.885 E97.65163
G1 X94.174 Y131.794 E97.8904
G1 X91.89 Y130.552 E98.17119
G1 X91.183 Y129.812 E98.28172
G1 X88.872 Y130.56 E98.54406
G1 X85.038 Y130.56 E98.95813
G1 X83.423 Y130.209 E99.13662
G1 X82.623 Y129.721 E99.23783
G1 X80.878 Y131.114 E99.47897
G1 X78.667 Y131.639 E99.7244
G1 X76.308 Y131.64 E99.97917
G1 X74.562 Y131.255 E100.17227
G1 X73.136 Y130.318 E100.35655
G1 X71.418 Y128.547 E100.62302
G1 X70.56 Y125.936 E100.91985
G1 X70.56 Y97.105 E104.0336
G1 X70.913 Y95.501 E104.21097
G1 X71.815 Y94.006 E104.39954
G1 X73.656 Y92.217 E104.67679
G0 F7200 X73.869 Y92.568
G1 F1800 X76.306 Y91.761 E104.95404
G1 X79.008 Y91.755 E105.24586
G1 X81.102 Y92.428 E105.4834
G1 X82.515 Y93.764 E105.69342
G1 X82.772 Y93.589 E105.727
G1 X85.066 Y92.84 E105.98762
G1 X89.098 Y92.84 E106.42308
G1 X91.268 Y93.578 E106.67062
G1 X92.695 Y92.437 E106.86794
G1 X94.444 Y91.633 E107.07584
G1 X96.11 Y91.567 E107.25591
G1 X97.294 Y91.746 E107.38523
G1 X97.85 Y91.76 E107.4453
G1 X121.542 Y91.707 E110.00404
G1 X123.552 Y92.136 E110.22601
G1 X125.449 Y93.508 E110.47885
G1 X125.641 Y93.739 E110.5113
G1 X125.875 Y93.58 E110.54185
G1 X128.16 Y92.84 E110.80125
G1 X132.427 Y92.84 E111.26208
G1 X134.563 Y93.566 E111.50573
G1 X134.687 Y93.418 E111.52659
G1 X136.139 Y92.277 E111.72603
G1 X137.897 Y91.537 E111.93202
G1 X139.57 Y91.492 E112.11277
G1 X140.879 Y91.737 E112.2566
G1 X141.481 Y91.76 E112.32166
G1 X146.942 Y91.761 E112.91145
G1 X149.13 Y92.505 E113.16104
G1 X151.233 Y94.67 E113.48701
G1 X152.04 Y97.154 E113.76909
G1 X152.008 Y105.515 E114.67208
G1 X151.985 Y105.733 E114.69576
G1 X151.97 Y106.257 E114.75237
G1 X151.934 Y117.051 E115.91813
G1 X152.04 Y117.595 E115.97799
G1 X152.04 Y125.848 E116.86931
G1 X151.68 Y127.482 E117.05002
G1 X150.819 Y128.792 E117.21932
G1 X149.127 Y130.433 E117.47388
G1 X146.662 Y131.24 E117.75401
G1 X138.428 Y131.264 E118.64328
G1 X136.412 Y130.762 E118.86766
G1 X134.644 Y129.274 E119.11723
G1 X134.424 Y129.419 E119.14569
G1 X132.137 Y130.16 E119.40532
G1 X128.169 Y130.16 E119.83387
G1 X126.659 Y129.832 E120.00075
G1 X125.725 Y129.261 E120.11898
G1 X123.805 Y130.804 E120.385
G1 X121.584 Y131.307 E120.63094
G1 X119.647 Y131.241 E120.84026
G1 X97.396 Y131.257 E123.24337
G1 X96.35 Y131.483 E123.35895
G1 X94.282 Y131.398 E123.58248
G1 X92.136 Y130.231 E123.8463
G1 X91.263 Y129.317 E123.9828
G1 X91.093 Y129.42 E124.00427
G1 X88.808 Y130.16 E124.26367
G1 X85.082 Y130.16 E124.66608
G1 X83.574 Y129.832 E124.83275
G1 X82.593 Y129.234 E124.95683
G1 X80.698 Y130.746 E125.21865
G1 X78.621 Y131.239 E125.4492
G1 X76.353 Y131.24 E125.69415
G1 X74.719 Y130.88 E125.87485
G1 X73.394 Y130.009 E126.0461
G1 X71.769 Y128.334 E126.29814
G1 X70.96 Y125.872 E126.57802
G1 X70.96 Y97.15 E129.68
G1 X71.29 Y95.65 E129.84587
G1 X72.13 Y94.258 E130.02146
G1 X73.869 Y92.568 E130.28335
G0 F7200 X74.082 Y92.919
G1 F1800 X76.372 Y92.161 E130.54387
G1 X78.946 Y92.155 E130.82186
G1 X80.892 Y92.781 E131.04264
G1 X82.497 Y94.298 E131.28115
G1 X82.896 Y93.969 E131.337
G1 X85.129 Y93.24 E131.59069
G1 X89.031 Y93.24 E132.01211
G1 X90.975 Y93.901 E132.23387
G1 X91.323 Y94.196 E132.28314
G1 X91.586 Y93.836 E132.33129
G1 X92.907 Y92.779 E132.51401
G1 X94.537 Y92.03 E132.70774
G1 X96.092 Y91.968 E132.87581
G1 X97.264 Y92.146 E133.00384
G1 X97.841 Y92.16 E133.06618
G1 X121.502 Y92.107 E135.62157
G1 X123.386 Y92.509 E135.82962
G1 X125.215 Y93.832 E136.07342
G1 X125.57 Y94.32 E136.13859
G1 X125.998 Y93.961 E136.19892
G1 X128.224 Y93.24 E136.45163
G1 X132.36 Y93.24 E136.89831
G1 X134.304 Y93.901 E137.12007
G1 X134.621 Y94.164 E137.16456
G1 X134.934 Y93.733 E137.22208
G1 X136.344 Y92.625 E137.41575
G1 X137.983 Y91.935 E137.60781
G1 X139.539 Y91.893 E137.77592
G1 X140.837 Y92.136 E137.91854
G1 X141.466 Y92.16 E137.98652
G1 X146.875 Y92.161 E138.57069
G1 X148.91 Y92.853 E138.80283
G1 X150.882 Y94.883 E139.10849
G1 X151.64 Y97.216 E139.37342
G1 X151.608 Y105.513 E140.2695
G1 X151.585 Y105.708 E140.29071
G1 X151.57 Y106.246 E140.34883
G1 X151.534 Y117.09 E141.51999
G1 X151.64 Y117.635 E141.57996
G1 X151.64 Y125.803 E142.4621
G1 X151.305 Y127.325 E142.63041
G1 X150.508 Y128.537 E142.78707
G1 X148.915 Y130.082 E143.02674
G1 X146.599 Y130.84 E143.28992
G1 X138.476 Y130.864 E144.16721
G1 X136.598 Y130.396 E144.37624
G1 X134.842 Y128.919 E144.62405
G1 X134.696 Y128.712 E144.65141
G1 X134.301 Y129.038 E144.70672
G1 X132.073 Y129.76 E144.95967
G1 X128.213 Y129.76 E145.37655
G1 X126.81 Y129.455 E145.53161
G1 X125.595 Y128.714 E145.68531
G1 X125.351 Y129.048 E145.72998
G1 X123.625 Y130.435 E145.96912
G1 X121.548 Y130.905 E146.19911
G1 X119.661 Y130.841 E146.40302
G1 X97.354 Y130.857 E148.81217
G1 X96.317 Y131.081 E148.92675
G1 X94.39 Y131.002 E149.13504
G1 X92.382 Y129.91 E149.3819
G1 X91.3 Y128.776 E149.55118
G1 X90.97 Y129.039 E149.59675
G1 X88.744 Y129.76 E149.84946
G1 X85.126 Y129.76 E150.2402
G1 X83.723 Y129.455 E150.39527
G1 X82.474 Y128.693 E150.55328
G1 X82.247 Y128.997 E150.59425
G1 X80.517 Y130.378 E150.83332
G1 X78.575 Y130.839 E151.04889
G1 X76.398 Y130.84 E151.284
G1 X74.876 Y130.505 E151.45232
G1 X73.652 Y129.7 E151.61053
G1 X72.12 Y128.121 E151.84814
G1 X71.36 Y125.808 E152.11108
G1 X71.36 Y97.195 E155.20129
G1 X71.667 Y95.801 E155.35545
G1 X72.447 Y94.508 E155.51853
G1 X74.082 Y92.919 E155.76477
G0 F7200 X74.295 Y93.27
G1 F1800 X76.438 Y92.561 E156.00855
G1 X78.884 Y92.555 E156.27272
G1 X80.684 Y93.134 E156.47693
G1 X82.203 Y94.566 E156.70239
G1 X82.445 Y94.907 E156.74755
G1 X83.02 Y94.349 E156.83408
G1 X85.192 Y93.64 E157.08084
G1 X88.964 Y93.64 E157.48821
G1 X90.846 Y94.28 E157.7029
G1 X91.381 Y94.831 E157.78584
G1 X91.836 Y94.148 E157.87448
G1 X93.119 Y93.121 E158.05197
G1 X94.63 Y92.427 E158.23154
G1 X96.074 Y92.369 E158.38762
G1 X97.234 Y92.545 E158.51434
G1 X97.832 Y92.56 E158.57894
G1 X121.462 Y92.507 E161.13099
G1 X123.22 Y92.882 E161.32512
G1 X124.981 Y94.156 E161.55986
G1 X125.503 Y94.941 E161.66168
G1 X126.121 Y94.342 E161.75463
G1 X128.288 Y93.64 E162.00064
G1 X132.293 Y93.64 E162.43318
G1 X134.175 Y94.28 E162.64786
G1 X134.678 Y94.797 E162.72577
G1 X135.181 Y94.047 E162.8233
G1 X136.546 Y92.974 E163.01081
G1 X138.069 Y92.333 E163.18927
G1 X139.508 Y92.294 E163.34474
G1 X140.795 Y92.535 E163.48615
G1 X141.451 Y92.56 E163.55705
G1 X146.808 Y92.561 E164.13561
G1 X148.69 Y93.201 E164.35029
G1 X150.531 Y95.096 E164.63563
G1 X151.24 Y97.278 E164.88342
G1 X151.208 Y105.511 E165.77259
G1 X151.185 Y105.682 E165.79122
G1 X151.17 Y106.235 E165.85097
G1 X151.134 Y117.129 E167.02753
G1 X151.24 Y117.675 E167.08759
G1 X151.24 Y125.758 E167.96056
G1 X150.93 Y127.168 E168.11648
G1 X150.197 Y128.282 E168.2605
G1 X148.703 Y129.731 E168.48527
G1 X146.536 Y130.44 E168.73152
G1 X138.524 Y130.464 E169.59682
G1 X136.784 Y130.03 E169.79049
G1 X135.099 Y128.613 E170.02827
G1 X134.788 Y128.065 E170.09632
G1 X134.178 Y128.657 E170.18812
G1 X132.009 Y129.36 E170.43437
G1 X128.257 Y129.36 E170.83959
G1 X126.959 Y129.078 E170.98304
G1 X125.769 Y128.352 E171.13359
G1 X125.523 Y128.099 E171.1717
G1 X125.1 Y128.736 E171.25428
G1 X123.445 Y130.066 E171.48359
G1 X121.512 Y130.503 E171.69762
G1 X119.674 Y130.441 E171.89624
G1 X97.31 Y130.457 E174.31155
G1 X96.283 Y130.679 E174.42503
G1 X94.498 Y130.606 E174.61797
G1 X92.628 Y129.589 E174.84787
G1 X91.483 Y128.389 E175.027
G1 X91.349 Y128.171 E175.05463
G1 X90.847 Y128.658 E175.13017
G1 X88.68 Y129.36 E175.37618
G1 X85.17 Y129.36 E175.75526
G1 X83.872 Y129.078 E175.89871
G1 X82.682 Y128.352 E176.04926
G1 X82.411 Y128.073 E176.09127
G1 X81.997 Y128.684 E176.17098
G1 X80.336 Y130.01 E176.40052
G1 X78.529 Y130.439 E176.6011
G1 X76.443 Y130.44 E176.82639
G1 X75.033 Y130.13 E176.9823
G1 X73.91 Y129.391 E177.12749
G1 X72.471 Y127.908 E177.35066
G1 X71.76 Y125.744 E177.59667
G1 X71.76 Y97.24 E180.6751
G1 X72.044 Y95.95 E180.81776
G1 X72.762 Y94.76 E180.96786
G1 X74.295 Y93.27 E181.19874
G0 F7200 X74.508 Y93.621
G1 F1800 X76.504 Y92.961 E181.42579
G1 X78.822 Y92.955 E181.67613
G1 X80.476 Y93.487 E181.86378
G1 X81.929 Y94.857 E182.07946
G1 X82.382 Y95.526 E182.16671
G1 X83.233 Y94.7 E182.2948
G1 X85.255 Y94.04 E182.52451
G1 X88.897 Y94.04 E182.91785
G1 X90.626 Y94.628 E183.11508
G1 X91.439 Y95.465 E183.2411
G1 X92.135 Y94.42 E183.3767
G1 X93.328 Y93.466 E183.54168
G1 X94.726 Y92.824 E183.70782
G1 X96.056 Y92.77 E183.85158
G1 X97.203 Y92.944 E183.97687
G1 X97.823 Y92.96 E184.04385
