;FLAVOR:UltiGCode
;TIME:7669
;MATERIAL:6684
;MATERIAL2:0
;NOZZLE_DIAMETER:0.4
;MINX:88.592
;MINY:81.077
;MINZ:0.3
;MAXX:174.577
;MAXY:135.015
;MAXZ:44.32
;TARGET_MACHINE.NAME:Ultimaker 2+
;Generated with Cura_SteamEngine 5.6.0
M82 ;absolute extrusion mode
G0 F3000 Y50 ;avoid prime blob
G92 E0
G92 E0
G10
;LAYER_COUNT:433
;LAYER:-7
M107
G0 F7200 X94.494 Y93.941 Z0.3
;TYPE:SUPPORT-INTERFACE
G11
G1 F900 X93.848 Y94.611 E0.22337
G1 X93.08 Y95.543 E0.51321
G1 X92.459 Y96.421 E0.77131
G1 X91.999 Y97.176 E0.98349
G1 X91.517 Y98.102 E1.23404
G1 X91.041 Y99.206 E1.52258
G1 X90.689 Y100.269 E1.79132
G1 X90.429 Y101.289 E2.04395
G1 X90.258 Y102.221 E2.27136
G1 X90.199 Y102.712 E2.39005
G1 X90.037 Y103.541 E2.59277
G1 X89.804 Y104.201 E2.76075
G1 X89.5 Y104.94 E2.95253
G1 X89.189 Y105.884 E3.19107
G1 X88.929 Y106.904 E3.4437
G1 X88.758 Y107.834 E3.67064
G1 X88.64 Y108.863 E3.91922
G1 X88.594 Y109.994 E4.19088
G1 X88.592 Y112.939 E4.89768
G1 X88.6 Y113.446 E5.01938
G1 X88.675 Y114.515 E5.27657
G1 X88.853 Y115.727 E5.57057
G1 X89.096 Y116.788 E5.8318
G1 X89.369 Y117.698 E6.05982
G1 X89.809 Y118.833 E6.35197
G1 X90.077 Y119.64 E6.55605
G1 X90.353 Y121.339 E6.96916
G1 X90.597 Y122.402 E7.23091
G1 X90.909 Y123.414 E7.48507
G1 X91.302 Y124.429 E7.7463
G1 X91.678 Y125.222 E7.95693
G1 X92.253 Y126.26 E8.24171
G1 X92.878 Y127.183 E8.50924
G1 X93.51 Y127.994 E8.756
G1 X94.248 Y128.812 E9.02042
G1 X94.919 Y129.459 E9.24412
G1 X95.849 Y130.225 E9.53329
G1 X96.727 Y130.847 E9.79153
G1 X97.482 Y131.306 E10.00358
G1 X98.407 Y131.788 E10.25392
G1 X99.518 Y132.268 E10.54438
G1 X100.573 Y132.616 E10.811
G1 X101.597 Y132.879 E11.06473
G1 X102.527 Y133.049 E11.29163
G1 X103.56 Y133.168 E11.54119
G1 X104.485 Y133.226 E11.76363
G1 X105.164 Y133.355 E11.9295
G1 X105.812 Y133.567 E12.09313
G1 X106.732 Y133.929 E12.33041
G1 X107.465 Y134.194 E12.51748
G1 X108.163 Y134.414 E12.69312
G1 X109.198 Y134.679 E12.94953
G1 X110.128 Y134.849 E13.17643
G1 X111.157 Y134.967 E13.42501
G1 X112.286 Y135.014 E13.6962
G1 X114.989 Y135.015 E14.34492
G1 X115.953 Y134.982 E14.57642
G1 X116.993 Y134.877 E14.82729
G1 X118.144 Y134.677 E15.10767
G1 X119.292 Y134.375 E15.39256
G1 X120.158 Y134.081 E15.61205
G1 X120.968 Y133.775 E15.81986
G1 X122.123 Y133.277 E16.12173
G1 X123.134 Y132.743 E16.39614
G1 X124.1 Y132.126 E16.67123
G1 X124.825 Y131.714 E16.87137
G1 X124.988 Y131.638 E16.91453
G1 X125.926 Y131.119 E17.17181
G1 X126.829 Y130.526 E17.43108
G1 X127.778 Y129.794 E17.71873
G1 X128.593 Y129.058 E17.98228
G1 X129.23 Y128.398 E18.20242
G1 X129.888 Y127.608 E18.44918
G1 X130.651 Y126.577 E18.75701
G1 X131.122 Y126.072 E18.92274
G1 X131.643 Y125.641 E19.08502
G1 X132.236 Y125.265 E19.25354
G1 X132.818 Y124.99 E19.40803
G1 X133.5 Y124.768 E19.58016
G1 X134.159 Y124.644 E19.7411
G1 X134.836 Y124.604 E19.90386
G1 X136.511 Y124.605 E20.30586
G1 X138.091 Y124.529 E20.6855
G1 X139.025 Y124.398 E20.91185
G1 X140.193 Y124.158 E21.19803
G1 X141.313 Y123.822 E21.47866
G1 X142.203 Y123.488 E21.70681
G1 X142.951 Y123.18 E21.90095
G1 X143.652 Y122.946 E22.07832
G1 X144.317 Y122.818 E22.24085
G1 X145.039 Y122.776 E22.41442
G1 X145.706 Y122.821 E22.57486
G1 X147.065 Y123.084 E22.90708
G1 X147.762 Y123.265 E23.0799
G1 X148.402 Y123.523 E23.24552
G1 X149.234 Y123.89 E23.46376
G1 X150.284 Y124.272 E23.73192
G1 X151.395 Y124.577 E24.00842
G1 X152.083 Y124.736 E24.1779
G1 X153.298 Y124.967 E24.47472
G1 X154.407 Y125.078 E24.74221
G1 X155.408 Y125.114 E24.9826
G1 X157.528 Y125.113 E25.4914
G1 X158.489 Y125.079 E25.72219
G1 X159.697 Y124.95 E26.01376
G1 X160.77 Y124.751 E26.27567
G1 X161.798 Y124.479 E26.53088
G1 X162.727 Y124.165 E26.76623
G1 X163.547 Y123.855 E26.97662
G1 X164.066 Y123.647 E27.11081
G1 X165.164 Y123.129 E27.40219
G1 X166.061 Y122.627 E27.64889
G1 X166.954 Y122.024 E27.90749
G1 X167.81 Y121.356 E28.16809
G1 X168.609 Y120.632 E28.42686
G1 X169.238 Y119.982 E28.64394
G1 X170.147 Y119.161 E28.93791
G1 X170.793 Y118.49 E29.16146
G1 X171.561 Y117.558 E29.45129
G1 X172.182 Y116.68 E29.7094
G1 X172.642 Y115.925 E29.92158
G1 X173.124 Y114.999 E30.17212
G1 X173.601 Y113.894 E30.46098
G1 X173.952 Y112.831 E30.72964
G1 X174.212 Y111.812 E30.98204
G1 X174.383 Y110.882 E31.20898
G1 X174.501 Y109.853 E31.45756
G1 X174.548 Y108.725 E31.72852
G1 X174.549 Y107.405 E32.04532
G1 X174.577 Y106.546 E32.25158
G1 X174.577 Y100.117 E33.79454
G1 X174.549 Y99.075 E34.04472
G1 X174.541 Y97.534 E34.41456
G1 X174.466 Y96.465 E34.67175
G1 X174.288 Y95.254 E34.96551
G1 X174.044 Y94.193 E35.2268
G1 X173.771 Y93.281 E35.45528
G1 X173.339 Y92.17 E35.74136
G1 X172.962 Y91.373 E35.95296
G1 X172.383 Y90.33 E36.23927
G1 X171.764 Y89.416 E36.5042
G1 X171.132 Y88.605 E36.75096
G1 X170.393 Y87.786 E37.01571
G1 X169.738 Y87.156 E37.23383
G1 X169.122 Y86.612 E37.43106
G1 X168.278 Y85.788 E37.71415
G1 X167.462 Y85.102 E37.97
G1 X166.466 Y84.377 E38.26567
G1 X165.256 Y83.627 E38.60733
G1 X164.458 Y83.208 E38.82364
G1 X163.503 Y82.783 E39.07451
G1 X162.483 Y82.417 E39.3346
G1 X161.435 Y82.125 E39.5957
G1 X160.829 Y81.982 E39.74513
G1 X159.615 Y81.748 E40.04185
G1 X158.408 Y81.62 E40.33316
G1 X157.407 Y81.585 E40.57354
G1 X155.343 Y81.585 E41.0689
G1 X154.64 Y81.602 E41.23767
G1 X153.7 Y81.676 E41.46397
G1 X152.582 Y81.839 E41.73513
G1 X151.435 Y82.11 E42.01799
G1 X150.546 Y82.382 E42.24111
G1 X149.981 Y82.577 E42.38456
G1 X149.117 Y82.903 E42.60619
G1 X148.674 Y83.099 E42.72245
G1 X147.946 Y83.368 E42.90872
G1 X147.276 Y83.517 E43.07345
G1 X146.628 Y83.577 E43.22963
G1 X145.949 Y83.558 E43.39265
G1 X145.268 Y83.451 E43.5581
G1 X144.621 Y83.262 E43.71987
G1 X143.98 Y82.984 E43.88755
G1 X143.497 Y82.736 E44.01786
G1 X142.405 Y82.264 E44.30338
G1 X141.715 Y82.004 E44.48034
G1 X140.894 Y81.727 E44.6883
G1 X139.68 Y81.409 E44.98949
G1 X138.755 Y81.241 E45.21512
G1 X137.571 Y81.113 E45.50093
G1 X136.562 Y81.077 E45.74325
G1 X134.342 Y81.077 E46.27605
G1 X133.62 Y81.096 E46.44939
G1 X132.707 Y81.168 E46.66919
G1 X131.569 Y81.335 E46.94523
G1 X130.424 Y81.605 E47.22757
G1 X129.552 Y81.873 E47.44651
G1 X128.897 Y82.098 E47.61273
G1 X128.052 Y82.423 E47.83001
G1 X127.533 Y82.656 E47.96655
G1 X126.717 Y82.96 E48.17554
G1 X126.01 Y83.106 E48.3488
G1 X124.972 Y83.337 E48.60401
G1 X123.887 Y83.655 E48.87536
G1 X122.777 Y84.085 E49.16105
G1 X121.98 Y84.462 E49.37265
G1 X120.937 Y85.042 E49.65908
G1 X120.022 Y85.662 E49.92434
G1 X119.316 Y86.207 E50.13839
G1 X118.844 Y86.622 E50.28923
G1 X118.278 Y87.061 E50.46114
G1 X117.683 Y87.413 E50.62706
G1 X117.033 Y87.689 E50.79654
G1 X116.388 Y87.873 E50.95752
G1 X115.706 Y87.975 E51.12302
G1 X115.053 Y87.992 E51.27979
G1 X112.722 Y87.986 E51.83923
G1 X111.08 Y88.07 E52.23383
G1 X109.788 Y88.257 E52.54714
G1 X108.834 Y88.46 E52.78122
G1 X107.742 Y88.759 E53.05295
G1 X106.776 Y89.105 E53.29921
G1 X106.243 Y89.34 E53.43902
G1 X105.4 Y89.631 E53.65305
G1 X104.757 Y89.753 E53.81012
G1 X103.177 Y89.868 E54.19033
G1 X101.964 Y90.046 E54.48457
G1 X101.073 Y90.246 E54.70373
G1 X99.988 Y90.564 E54.97508
G1 X98.878 Y90.994 E55.26077
G1 X98.081 Y91.371 E55.47237
G1 X97.038 Y91.951 E55.75879
G1 X96.124 Y92.57 E56.02372
G1 X95.313 Y93.202 E56.27049
G1 X94.494 Y93.941 E56.53524
G0 F7200 X94.504 Y94.504
G1 F900 X128.538 Y128.538 E68.08676
G0 F7200 X127.352 Y129.615
G1 F900 X93.454 Y95.716 E79.59229
G0 F7200 X92.536 Y97.061
G1 F900 X126.038 Y130.564 E90.96342
G0 F7200 X124.593 Y131.381
G1 F900 X91.759 Y98.548 E102.10748
G0 F7200 X91.136 Y100.187
G1 F900 X123.184 Y132.235 E112.98493
G0 F7200 X121.706 Y133.02
G1 F900 X90.702 Y102.015 E123.5082
G0 F7200 X90.33 Y103.907
G1 F900 X120.098 Y133.675 E133.6118
G0 F7200 X118.364 Y134.203
G1 F900 X89.717 Y105.556 E143.33491
G0 F7200 X89.252 Y107.354
G1 F900 X116.428 Y134.53 E152.55875
G0 F7200 X114.248 Y134.613
G1 F900 X89.019 Y109.383 E161.12193
G0 F7200 X88.992 Y111.62
G1 F900 X111.972 Y134.599 E168.92143
G0 F7200 X109.421 Y134.312
G1 F900 X89.034 Y113.924 E175.84118
G0 F7200 X89.468 Y116.621
G1 F900 X106.095 Y133.247 E181.4844
G0 F7200 X103.321 Y132.736
G1 F900 X90.528 Y119.944 E185.82632
G0 F7200 X91.146 Y122.824
G1 F900 X100.488 Y132.166 E188.9971
G0 F7200 X95.369 Y129.31
G1 F900 X94.012 Y127.953 E189.45768
G10
G0 F7200 X95.683 Y93.42
G11
G1 F900 X129.594 Y127.331 E200.96745
G0 F7200 X130.585 Y126.06
G1 F900 X96.991 Y92.466 E212.36963
G0 F7200 X98.434 Y91.645
G1 F900 X131.832 Y125.044 E223.70546
G0 F7200 X133.426 Y124.375
G1 F900 X100.028 Y90.977 E235.04112
G0 F7200 X101.805 Y90.491
G1 F900 X135.517 Y124.204 E246.48352
G0 F7200 X137.722 Y124.146
G1 F900 X103.8 Y90.223 E257.9972
G0 F7200 X105.769 Y89.929
G1 F900 X139.691 Y123.852 E269.51088
G0 F7200 X141.446 Y123.344
G1 F900 X107.406 Y89.304 E281.06444
G0 F7200 X109.163 Y88.799
G1 F900 X143.08 Y122.715 E292.57608
G0 F7200 X145.002 Y122.375
G1 F900 X111.099 Y88.472 E304.08314
G0 F7200 X113.277 Y88.387
G1 F900 X147.734 Y122.844 E315.77823
G0 F7200 X151.284 Y124.131
G1 F900 X115.53 Y88.377 E327.91354
G0 F7200 X117.388 Y87.973
G1 F900 X154.056 Y124.641 E340.35907
G0 F7200 X156.392 Y124.713
G1 F900 X118.822 Y87.144 E353.11058
G0 F7200 X120.07 Y86.129
G1 F900 X158.604 Y124.663 E366.18946
G0 F7200 X160.581 Y124.377
G1 F900 X121.43 Y85.226 E379.47775
G0 F7200 X122.924 Y84.458
G1 F900 X162.339 Y123.873 E392.85564
G0 F7200 X163.975 Y123.246
G1 F900 X124.594 Y83.864 E406.22217
G0 F7200 X126.422 Y83.43
G1 F900 X165.482 Y122.49 E419.47957
G0 F7200 X166.851 Y121.596
G1 F900 X128.096 Y82.841 E432.63345
G0 F7200 X129.748 Y82.23
G1 F900 X168.084 Y120.566 E445.64512
G0 F7200 X169.23 Y119.45
G1 F900 X131.534 Y81.754 E458.43957
G0 F7200 X133.546 Y81.503
G1 F900 X170.383 Y118.339 E470.94229
G0 F7200 X171.399 Y117.093
G1 F900 X135.782 Y81.477 E483.03093
G0 F7200 X138.146 Y81.577
G1 F900 X172.294 Y115.725 E494.62115
G0 F7200 X173.032 Y114.201
G1 F900 X141.024 Y82.193 E505.48502
G0 F7200 X144.832 Y83.738
G1 F900 X173.617 Y112.523 E515.25498
G0 F7200 X174.006 Y110.65
G1 F900 X147.276 Y83.919 E524.32761
G0 F7200 X149.007 Y83.388
G1 F900 X174.147 Y108.528 E532.86041
G0 F7200 X174.176 Y106.294
G1 F900 X150.651 Y82.768 E540.84523
G0 F7200 X152.431 Y82.286
G1 F900 X174.176 Y104.031 E548.22573
G0 F7200 X174.176 Y101.768
G1 F900 X154.428 Y82.02 E554.92842
G0 F7200 X156.655 Y81.984
G1 F900 X174.159 Y99.489 E560.86964
G0 F7200 X174.114 Y97.181
G1 F900 X159.02 Y82.087 E565.99272
G0 F7200 X161.852 Y82.656
G1 F900 X173.706 Y94.51 E570.0161
G0 F7200 X172.094 Y90.636
G1 F900 X166.045 Y84.586 E572.06937
G10
G0 F600 X166.045 Y84.586 Z0.5
G0 F7200 X172.146 Y116.353
;TIME_ELAPSED:166.081486
;LAYER:-6
M106 S127.5
;TYPE:SUPPORT
G11
G1 F1050 X166.223 Y122.276 E573.07453
G1 X166.703 Y121.958 E573.14363
G1 X167.563 Y121.302 E573.27342
G1 X168.468 Y120.492 E573.41917
G1 X169.098 Y119.839 E573.52805
G1 X169.882 Y119.137 E573.65434
G1 X170.626 Y118.372 E573.78239
G1 X171.295 Y117.579 E573.90689
G1 X171.965 Y116.651 E574.04424
G1 X172.468 Y115.823 E574.1605
G1 X172.951 Y114.896 E574.28593
G1 X173.314 Y114.053 E574.39607
G1 X163.852 Y123.515 E576.00183
G1 X162.668 Y123.974 E576.15421
G1 X162.058 Y124.177 E576.23136
G1 X173.905 Y112.331 E578.24177
G1 X174.171 Y110.934 E578.41243
G1 X160.501 Y124.603 E580.73222
G1 X159.613 Y124.766 E580.84056
G1 X159.161 Y124.812 E580.89508
G1 X174.308 Y109.665 E583.46561
G1 X174.356 Y108.485 E583.60733
G1 X157.931 Y124.911 E586.39483
G1 X156.798 Y124.913 E586.53079
G1 X174.35 Y107.36 E589.50954
G1 X174.387 Y106.192 E589.64977
G1 X155.657 Y124.923 E592.82845
G1 X154.569 Y124.879 E592.95911
G1 X174.376 Y105.072 E596.32047
G1 X174.376 Y103.941 E596.45619
G1 X153.512 Y124.804 E599.99685
G1 X152.563 Y124.622 E600.1128
G1 X174.376 Y102.809 E603.81459
G1 X174.376 Y101.678 E603.95031
G1 X151.619 Y124.434 E607.81222
G1 X150.731 Y124.191 E607.92269
G1 X174.388 Y100.535 E611.93733
G1 X174.357 Y99.434 E612.06951
G1 X149.879 Y123.912 E616.22356
G1 X149.048 Y123.612 E616.32958
G1 X174.343 Y98.316 E620.62237
G1 X174.339 Y97.189 E620.75761
G1 X148.273 Y123.255 E625.18116
G1 X147.426 Y122.971 E625.28836
G1 X174.221 Y96.176 E629.83562
G1 X174.076 Y95.19 E629.95521
G1 X146.492 Y122.773 E634.63629
G1 X145.842 Y122.629 E634.71618
G1 X145.526 Y122.608 E634.75418
G1 X173.854 Y94.279 E639.56169
G1 X173.596 Y93.406 E639.67093
G1 X144.405 Y122.598 E644.62489
G1 X143.608 Y122.75 E644.72225
G1 X142.877 Y122.994 E644.81473
G1 X173.304 Y92.567 E649.97836
G1 X172.939 Y91.801 E650.08019
G1 X141.045 Y123.695 E655.49278
G1 X140.162 Y123.96 E655.60341
G1 X139.512 Y124.097 E655.68312
G1 X172.556 Y91.052 E661.29096
G1 X172.147 Y90.33 E661.39053
G1 X138.159 Y124.318 E667.15849
G1 X136.963 Y124.383 E667.30222
G1 X171.695 Y89.651 E673.19644
G1 X171.201 Y89.013 E673.29326
G1 X135.809 Y124.405 E679.29949
G1 X134.679 Y124.404 E679.43509
G1 X170.679 Y88.404 E685.54449
G1 X170.144 Y87.808 E685.6406
G1 X133.345 Y124.607 E691.88559
G1 X132.755 Y124.8 E691.96009
G1 X132.115 Y125.102 E692.04501
G1 X131.518 Y125.482 E692.12993
G1 X130.973 Y125.937 E692.21512
G1 X130.438 Y126.511 E692.30928
G1 X129.843 Y127.341 E692.43183
G1 X129.179 Y128.148 E692.55724
G1 X128.455 Y128.913 E692.68363
G1 X127.6 Y129.686 E692.82195
G1 X126.714 Y130.363 E692.95575
G1 X125.972 Y130.848 E693.06213
G1 X169.557 Y87.264 E700.45866
G1 X168.958 Y86.73 E700.55496
G1 X123.24 Y132.449 E708.31365
G1 X122.103 Y133.068 E708.46899
G1 X121.024 Y133.534 E708.61003
G1 X168.386 Y86.172 E716.64763
G1 X167.788 Y85.638 E716.74384
G1 X119.236 Y134.19 E724.98339
G1 X117.726 Y134.569 E725.17021
G1 X167.164 Y85.131 E733.56011
G1 X166.508 Y84.656 E733.6573
G1 X116.397 Y134.766 E742.16134
G1 X115.226 Y134.806 E742.30194
G1 X165.823 Y84.209 E750.88853
G1 X165.121 Y83.78 E750.98726
G1 X114.087 Y134.814 E759.64802
G1 X112.956 Y134.813 E759.78374
G1 X164.38 Y83.389 E768.51068
G1 X163.596 Y83.042 E768.61356
G1 X111.844 Y134.794 E777.39617
G1 X110.757 Y134.749 E777.52672
G1 X162.775 Y82.732 E786.35438
G1 X161.935 Y82.441 E786.46106
G1 X109.791 Y134.584 E795.3101
G1 X108.842 Y134.402 E795.42606
G1 X161.021 Y82.223 E804.28113
G1 X160.072 Y82.04 E804.39711
G1 X107.97 Y134.142 E813.23911
G1 X107.114 Y133.867 E813.347
G1 X159.094 Y81.887 E822.1683
G1 X158.584 Y81.832 E822.22985
G1 X158.04 Y81.81 E822.29519
G1 X106.304 Y133.546 E831.07508
G1 X105.473 Y133.245 E831.18114
G1 X156.935 Y81.783 E839.91453
G1 X155.803 Y81.783 E840.05037
G1 X104.552 Y133.035 E848.74804
G1 X103.497 Y132.959 E848.87496
G1 X154.654 Y81.801 E857.55668
G1 X153.428 Y81.896 E857.70424
G1 X102.485 Y132.839 E866.34956
G1 X101.534 Y132.658 E866.46572
G1 X152.019 Y82.174 E875.03323
G1 X151.595 Y82.267 E875.08532
G1 X150.43 Y82.631 E875.23178
G1 X100.635 Y132.426 E883.68227
G1 X99.786 Y132.144 E883.78963
G1 X148.587 Y83.343 E892.07143
G1 X148.025 Y83.553 E892.14343
G1 X147.33 Y83.71 E892.22893
G1 X147.064 Y83.735 E892.26099
G1 X98.979 Y131.82 E900.42128
G1 X98.208 Y131.459 E900.52344
G1 X145.913 Y83.754 E908.61925
G1 X145.218 Y83.645 E908.70367
G1 X144.966 Y83.57 E908.73522
G1 X97.471 Y131.065 E916.79539
G1 X96.768 Y130.637 E916.89415
G1 X144.124 Y83.281 E924.93073
G1 X143.371 Y82.902 E925.03189
G1 X96.109 Y130.164 E933.05252
G1 X95.477 Y129.665 E933.14915
G1 X142.593 Y82.549 E941.145
G1 X141.772 Y82.238 E941.25035
G1 X94.873 Y129.137 E949.20938
G1 X94.297 Y128.582 E949.30536
G1 X140.937 Y81.942 E957.22043
G1 X140.043 Y81.704 E957.33145
G1 X93.758 Y127.989 E965.18627
G1 X93.263 Y127.353 E965.28298
G1 X139.109 Y81.508 E973.06322
G1 X138.683 Y81.427 E973.11526
G1 X138.117 Y81.368 E973.18355
G1 X92.79 Y126.695 E980.8758
G1 X92.336 Y126.017 E980.97371
G1 X137.06 Y81.293 E988.56363
G1 X136.551 Y81.275 E988.62474
G1 X135.947 Y81.275 E988.69722
G1 X91.937 Y125.285 E996.16597
G1 X91.571 Y124.52 E996.26773
G1 X134.827 Y81.264 E1003.60852
G1 X133.666 Y81.293 E1003.74788
G1 X91.242 Y123.718 E1010.94756
G1 X90.951 Y122.877 E1011.05435
G1 X132.417 Y81.412 E1018.09128
G1 X131.586 Y81.535 E1018.19209
G1 X131.036 Y81.66 E1018.25977
G1 X90.704 Y121.993 E1025.10442
G1 X90.497 Y121.068 E1025.21817
G1 X129.445 Y82.12 E1031.82786
G1 X128.957 Y82.288 E1031.88979
G1 X128.123 Y82.608 E1031.99699
G1 X127.582 Y82.852 E1032.06821
G1 X90.363 Y120.071 E1038.38448
